build/img/yandex_logo.svg

<svg width="50" height="50" viewBox="0 0 50 50" fill="none" xmlns="http://www.w3.org/2000/svg">
<path d="M3.9625 34.0579V28.1251L0 17.4954H1.99375L4.90625 25.7001L8.26875 15.7798H10.1L5.78594 28.1907V34.0595L3.9625 34.0579ZM15.7063 34.0579H14.1766C14.1094 33.797 14.0453 33.4392 14.0203 33.1282H13.9078C13.3953 33.7798 12.7344 34.2204 11.7094 34.2204C10.0484 34.2204 8.90938 32.9657 8.90938 30.672C8.90938 28.172 10.1891 26.5954 13.4594 26.5954H13.7109V25.9032C13.7109 24.372 13.1984 23.722 12.1812 23.722C11.2516 23.722 10.4625 24.2095 9.86094 24.7392L9.51094 23.1438C10.0484 22.7048 11.1156 22.2173 12.2937 22.2173C14.3625 22.2173 15.4938 23.097 15.4938 25.9282V31.4142C15.4938 32.5282 15.6062 33.5063 15.6953 34.0595L15.7063 34.0579ZM13.7203 27.9704H13.5078C11.2531 27.9704 10.775 28.9626 10.775 30.4688C10.775 31.8126 11.2141 32.6892 12.1328 32.6892C12.7594 32.6892 13.3875 32.2751 13.7125 31.7626L13.7203 27.9704ZM19.5562 34.0579H17.75V22.347H19.5562V23.372H19.6688C19.9953 22.9329 20.875 22.2157 21.9641 22.2157C23.4937 22.2157 24.3 23.0704 24.3 24.8532V34.0579H22.4688V25.0157C22.4688 24.136 22.0797 23.8282 21.3797 23.8282C20.6219 23.8282 19.9797 24.4142 19.5562 24.9907V34.0579ZM26.0891 28.6626C26.0891 24.3251 27.7094 22.2173 30.0453 22.2173C30.6063 22.2173 31.1844 22.4048 31.5344 22.6563V17.4954H33.3406V34.0579H31.9969L31.8516 33.1282H31.7375C31.2328 33.7798 30.5828 34.2204 29.6313 34.2204C27.3359 34.2204 26.0891 32.2751 26.0891 28.6626ZM31.5359 24.2517C31.1688 23.8845 30.7719 23.697 30.1672 23.697C28.7109 23.697 28.0109 25.9032 28.0109 28.286C28.0109 31.022 28.5234 32.6876 29.85 32.6876C30.7547 32.6876 31.2328 32.2485 31.5359 31.786V24.2517ZM39.0453 34.2204C36.6375 34.2204 35.1469 32.3001 35.1469 28.7095C35.1469 24.9517 36.1891 22.2157 38.6703 22.2157C40.6156 22.2157 41.8844 23.672 41.8844 27.6454V28.6376H37.0266C37.0266 31.2829 37.7687 32.6673 39.2078 32.6673C40.2266 32.6673 40.975 32.211 41.4313 31.886L41.8547 33.2688C41.1125 33.8454 40.2016 34.2204 39.0453 34.2204ZM37.0516 27.1485H40.0391C40.0391 25.1548 39.7125 23.6985 38.6703 23.6985C37.5641 23.6985 37.175 25.0657 37.0438 27.1485H37.0516ZM49.7484 22.3798L47.575 27.8485L50 34.0595H48.1297L46.3125 29.2407L44.5563 34.0595H42.7734L45.2062 28.011L43.0016 22.3798H44.8813L46.3953 26.6188L47.9891 22.3798H49.7484Z" fill="white"/>
</svg>

<svg width="50" height="50" fill="none" xmlns="http://www.w3.org/2000/svg"><path d="M3.962 34.058v-5.933L0 17.495h1.994L4.906 25.7l3.363-9.92H10.1L5.786 28.19v5.87l-1.823-.002zm11.744 0h-1.53a5.937 5.937 0 01-.156-.93h-.112c-.513.652-1.174 1.092-2.199 1.092-1.66 0-2.8-1.254-2.8-3.548 0-2.5 1.28-4.077 4.55-4.077h.252v-.692c0-1.531-.513-2.181-1.53-2.181-.93 0-1.718.487-2.32 1.017l-.35-1.595c.537-.44 1.605-.927 2.783-.927 2.069 0 3.2.88 3.2 3.711v5.486c0 1.114.112 2.092.201 2.645l.011-.001zM13.72 27.97h-.212c-2.255 0-2.733.993-2.733 2.499 0 1.344.44 2.22 1.358 2.22.626 0 1.255-.414 1.58-.926l.007-3.793zm5.836 6.088H17.75V22.347h1.806v1.025h.113c.326-.44 1.206-1.156 2.295-1.156 1.53 0 2.336.854 2.336 2.637v9.205h-1.831v-9.042c0-.88-.39-1.188-1.09-1.188-.757 0-1.4.586-1.823 1.163v9.067zm6.533-5.395c0-4.338 1.62-6.446 3.956-6.446.561 0 1.14.188 1.49.44v-5.162h1.806v16.563h-1.344l-.145-.93h-.114c-.505.652-1.155 1.092-2.107 1.092-2.295 0-3.542-1.945-3.542-5.557zm5.447-4.411c-.367-.367-.764-.555-1.369-.555-1.456 0-2.156 2.206-2.156 4.589 0 2.736.512 4.402 1.839 4.402.905 0 1.383-.44 1.686-.902v-7.534zm7.51 9.968c-2.408 0-3.9-1.92-3.9-5.51 0-3.758 1.043-6.494 3.524-6.494 1.946 0 3.214 1.456 3.214 5.43v.992h-4.857c0 2.645.742 4.03 2.18 4.03 1.02 0 1.768-.457 2.224-.782l.424 1.383c-.742.576-1.653.951-2.81.951zm-1.994-7.072h2.987c0-1.993-.327-3.45-1.369-3.45-1.106 0-1.495 1.368-1.626 3.45h.008zm12.696-4.768l-2.173 5.469L50 34.059h-1.87l-1.818-4.818-1.756 4.819h-1.783l2.433-6.049-2.204-5.631h1.88l1.513 4.239 1.594-4.24h1.76z" fill="#fff"/></svg>
